brandFactory_export/3.Masa/Archivo comprimido_3Masa.svg

<?xml version="1.0" encoding="UTF-8"?>
<svg width="24px" height="24px" viewBox="0 0 24 24" version="1.1" xmlns="http://www.w3.org/2000/svg" xmlns:xlink="http://www.w3.org/1999/xlink">
    <title>3.Masa/Archivo comprimido_3Masa</title>
    <g id="Symbols" stroke="none" stroke-width="1" fill="none" fill-rule="evenodd">
        <g id="3.Masa/Archivo-comprimido_3Masa" fill="#5CB615" fill-rule="nonzero">
            <path d="M16.5831933,6.78655462 L18.7243697,6.78655462 L13.8436975,1.98655462 L13.8436975,4.11764706 C13.8436975,4.90756303 14.0991597,5.57647059 14.5798319,6.05042017 C15.0705882,6.53109244 15.7630252,6.78655462 16.5831933,6.78655462 Z M20.4352941,6.45042017 C20.6336134,6.64537815 20.7478992,6.91764706 20.7478992,7.19663866 L20.7478992,21.9697479 C20.7478992,22.8672269 19.9882353,23.6268908 19.087395,23.6268908 L4.68739496,23.6268908 C3.80336134,23.6268908 3.02689076,22.8537815 3.02689076,21.9697479 L3.02689076,1.65714286 C3.02689076,0.789915966 3.81680672,0 4.68739496,0 L7.39327731,0 L7.39327731,3.82857143 L6.27058824,3.82857143 C5.87731092,3.82857143 5.55798319,4.15462185 5.55798319,4.55462185 C5.55798319,4.95462185 5.87731092,5.28067227 6.27058824,5.28067227 L7.39327731,5.28067227 L7.39327731,7.1092437 L6.27058824,7.1092437 C5.87731092,7.1092437 5.55798319,7.43529412 5.55798319,7.83529412 C5.55798319,8.23529412 5.87731092,8.56134454 6.27058824,8.56134454 L7.39327731,8.56134454 L7.39327731,10.389916 L6.27058824,10.389916 C5.87731092,10.389916 5.55798319,10.7159664 5.55798319,11.1159664 C5.55798319,11.5159664 5.87731092,11.8420168 6.27058824,11.8420168 L7.39327731,11.8420168 L7.39327731,14.0705882 L6.28067227,14.0705882 C5.88739496,14.0705882 5.56806723,14.3966387 5.56806723,14.7966387 L5.56806723,17.5159664 C5.56806723,17.9159664 5.88739496,18.2420168 6.28067227,18.2420168 L9.88067227,18.2420168 C10.2739496,18.2420168 10.5932773,17.9159664 10.5932773,17.5159664 L10.5932773,14.7966387 C10.5932773,14.3966387 10.2739496,14.0705882 9.88067227,14.0705882 L8.81848739,14.0705882 L8.81848739,13.4789916 L9.90756303,13.4789916 C10.3008403,13.4789916 10.6201681,13.1529412 10.6201681,12.7529412 C10.6201681,12.3529412 10.3008403,12.0268908 9.90756303,12.0268908 L8.81848739,12.0268908 L8.81848739,10.1983193 L9.90756303,10.1983193 C10.3008403,10.1983193 10.6201681,9.87226891 10.6201681,9.47226891 C10.6201681,9.07226891 10.3008403,8.74621849 9.90756303,8.74621849 L8.81848739,8.74621849 L8.81848739,6.91764706 L9.90756303,6.91764706 C10.3008403,6.91764706 10.6201681,6.59159664 10.6201681,6.19159664 C10.6201681,5.79159664 10.3008403,5.46554622 9.90756303,5.46554622 L8.81848739,5.46554622 L8.81848739,3.63697479 L9.90756303,3.63697479 C10.3008403,3.63697479 10.6201681,3.31092437 10.6201681,2.91092437 C10.6201681,2.51092437 10.3008403,2.18487395 9.90756303,2.18487395 L8.81848739,2.18487395 L8.81848739,0 L13.4537815,0 C13.7226891,0 13.9781513,0.104201681 14.1731092,0.292436975 L20.4352941,6.45042017 Z M6.99663866,16.789916 L6.99663866,15.8117647 L9.16806723,15.8117647 L9.16806723,16.789916 L6.99663866,16.789916 Z" id="Archivo-comprimido_3Masa"></path>
        </g>
    </g>
</svg>

<svg width="24" height="24" viewBox="0 0 24 24" xmlns="http://www.w3.org/2000/svg"><path d="M16.583 6.787h2.141l-4.88-4.8v2.13c0 .79.255 1.46.736 1.933.49.481 1.183.737 2.003.737zm3.852-.337c.199.195.313.468.313.747V21.97c0 .897-.76 1.657-1.66 1.657h-14.4c-.885 0-1.661-.773-1.661-1.657V1.657C3.027.79 3.817 0 4.687 0h2.706v3.829H6.271a.72.72 0 00-.713.726c0 .4.32.726.713.726h1.122v1.828H6.271a.72.72 0 00-.713.726c0 .4.32.726.713.726h1.122v1.829H6.271a.72.72 0 00-.713.726c0 .4.32.726.713.726h1.122v2.229H6.281a.72.72 0 00-.713.726v2.719c0 .4.32.726.713.726h3.6a.72.72 0 00.712-.726v-2.72a.72.72 0 00-.712-.725H8.818v-.592h1.09a.72.72 0 00.712-.726.72.72 0 00-.712-.726h-1.09v-1.829h1.09a.72.72 0 00.712-.726.72.72 0 00-.712-.726h-1.09V6.918h1.09a.72.72 0 00.712-.726.72.72 0 00-.712-.726h-1.09V3.637h1.09a.72.72 0 00.712-.726.72.72 0 00-.712-.726h-1.09V0h4.636c.269 0 .524.104.72.292l6.261 6.158zM6.997 16.79v-.978h2.171v.978H6.997z" fill="#5CB615" fill-rule="nonzero"/></svg>
